src/actions/symbolic/lang-enum-symbolic.svg

<svg width="16px" height="16px" version="1.1" viewBox="0 0 16 16" xmlns="http://www.w3.org/2000/svg">
 <path d="m8.7071 0.22183c-0.39174-0.39174-1.0225-0.39174-1.4142 0l-7.0711 7.0711c-0.39174 0.39174-0.39174 1.0225 0 1.4142l7.0711 7.0711c0.39174 0.39174 1.0225 0.39174 1.4142 0l7.0711-7.0711c0.39174-0.39174 0.39174-1.0225 0-1.4142zm-0.70711 0.70711 7.0711 7.0711-7.0711 7.0711-7.0711-7.0711z" fill="#363636"/>
 <path d="m7 4c-1.662 0-3 1.338-3 3v2c0 1.662 1.338 3 3 3h3v-1h-3c-1.108 0-2-0.892-2-2v-1h7v-1c0-1.662-1.338-3-3-3zm0 1h2c1.108 0 2 0.892 2 2h-6c0-1.108 0.892-2 2-2z" fill="#363636"/>
</svg>

<svg xmlns="http://www.w3.org/2000/svg" width="16" height="16">
    <path fill="#050505" fill-opacity=".7" d="M8.707.222a.998.998 0 0 0-1.414 0L.222 7.292a.998.998 0 0 0 0 1.415l7.07 7.071a.998.998 0 0 0 1.415 0l7.071-7.07a.998.998 0 0 0 0-1.415zM8 .929 15.071 8 8 15.071.929 8z"/>
    <path fill="#050505" fill-opacity=".7" d="M7 4C5.338 4 4 5.338 4 7v2c0 1.662 1.338 3 3 3h3v-1H7c-1.108 0-2-.892-2-2V8h7V7c0-1.662-1.338-3-3-3zm0 1h2c1.108 0 2 .892 2 2H5c0-1.108.892-2 2-2z"/>
</svg>
